X:214
T:Valse de l'amitié
S:Laurence Beaudry
Z:robin.beech@mcgill.ca
M:3/4
L:1/8
K:D
A>d | f>f f>d A>d | f>f f>d A>d | a3- a>f d>f | e3 ABc |
e>e e>A B>c | e>e e>d e>f | g2 f2 e2 |1 f3 dAd :|2 d6 |:
